packages/theme-chalk/src/icons/pocket.svg

<svg width="20px" height="20px" viewBox="0 0 20 20" version="1.1" xmlns="http://www.w3.org/2000/svg" xmlns:xlink="http://www.w3.org/1999/xlink">
    <g id="Symbols" stroke="none" stroke-width="1" fill-rule="evenodd">
        <g id="icon/active/invoice" transform="translate(-2.000000, -2.000000)">
            <path d="M20,16.0005 L13.415,16.0005 L11.415,14.0005 L13.415,12.0005 L20,12.0005 L20,16.0005 Z M14.517,4.2705 L15.382,6.0005 L10.193,6.0005 L14.517,4.2705 Z M20,10.0005 L21,10.0005 C21.552,10.0005 22,10.4485 22,11.0005 L22,17.0005 C22,17.5525 21.552,18.0005 21,18.0005 L20,18.0005 L20,20.0005 C20,21.1035 19.103,22.0005 18,22.0005 L4,22.0005 C2.897,22.0005 2,21.1035 2,20.0005 L2,8.0005 C2,6.8985 2.897,6.0005 4,6.0005 L4.807,6.0005 L14.628,2.0715 C15.113,1.8805 15.662,2.0885 15.895,2.5535 L17.618,6.0005 L18,6.0005 C19.103,6.0005 20,6.8985 20,8.0005 L20,10.0005 Z M15,15.0005 C15.552,15.0005 16,14.5535 16,14.0005 C16,13.4485 15.552,13.0005 15,13.0005 C14.448,13.0005 14,13.4485 14,14.0005 C14,14.5535 14.448,15.0005 15,15.0005 Z" id="Fill-476"></path>
        </g>
    </g>
</svg>

<svg xmlns="http://www.w3.org/2000/svg" width="24" height="24" viewBox="0 0 24 24">
    <g fill-rule="evenodd">
        <path d="M20 16h-6.585l-2-2 2-2H20v4zM14.517 4.27L15.382 6h-5.189l4.324-1.73zM20 10h1a1 1 0 0 1 1 1v6a1 1 0 0 1-1 1h-1v2c0 1.104-.897 2-2 2H4c-1.103 0-2-.896-2-2V8c0-1.101.897-2 2-2h.807l9.821-3.929a1.003 1.003 0 0 1 1.267.482L17.618 6H18c1.103 0 2 .899 2 2v2zm-5 5a1 1 0 1 0 0-1.999 1 1 0 0 0 0 2z"/>
    </g>
</svg>
